assets/images/ico_email4.svg

<svg width="20" height="20" viewBox="0 0 20 20" fill="none" xmlns="http://www.w3.org/2000/svg">
<path d="M16.1098 2.5H3.88759C2.20214 2.5 0.832031 3.94436 0.832031 5.7197V13.447C0.832031 15.2223 2.20214 16.6667 3.88759 16.6667H16.1098C17.7953 16.6667 19.1654 15.2223 19.1654 13.447V5.7197C19.1654 3.94436 17.7953 2.5 16.1098 2.5ZM17.9431 13.447C17.9431 13.7445 17.8741 14.0233 17.7592 14.2744L13.1123 9.3792L17.7433 4.90576C17.7482 4.90061 17.7513 4.89223 17.7561 4.88837C17.871 5.14144 17.9431 5.42091 17.9431 5.7197V13.447ZM16.1098 3.78788C16.3915 3.78788 16.6568 3.86064 16.8939 3.98106L11.3865 9.30064C10.6336 10.0289 9.36131 10.0289 8.60842 9.30064L3.10048 3.98106C3.34248 3.86064 3.60281 3.78788 3.88453 3.78788H16.1098ZM2.05425 5.7197C2.05425 5.42091 2.12453 5.14144 2.24064 4.88837C2.24553 4.89481 2.24981 4.90189 2.25348 4.90576L6.88448 9.3792L2.23759 14.2744C2.1227 14.0227 2.05364 13.7445 2.05364 13.447L2.05425 5.7197ZM3.88759 15.3788C3.60464 15.3788 3.34064 15.306 3.10231 15.185L7.78587 10.2498C8.39575 10.839 9.19814 11.1339 9.9987 11.1339C10.7993 11.1339 11.6016 10.839 12.2115 10.2498L16.8951 15.185C16.6549 15.306 16.3915 15.3788 16.1098 15.3788H3.88759Z" fill="#023869" stroke="#023869" stroke-width="0.3"/>
</svg>

<svg width="20" height="20" fill="none" xmlns="http://www.w3.org/2000/svg"><path d="M16.11 2.5H3.888C2.202 2.5.832 3.944.832 5.72v7.727c0 1.775 1.37 3.22 3.056 3.22H16.11c1.685 0 3.055-1.445 3.055-3.22V5.72c0-1.776-1.37-3.22-3.055-3.22zm1.833 10.947c0 .298-.069.576-.184.827L13.112 9.38l4.631-4.473c.005-.005.008-.014.013-.018.115.253.187.533.187.832v7.727zm-1.833-9.66c.282 0 .547.074.784.194l-5.507 5.32c-.753.728-2.026.728-2.779 0L3.1 3.98c.242-.12.503-.193.785-.193H16.11zM2.054 5.72c0-.3.07-.579.187-.832l.012.018 4.631 4.473-4.646 4.895a1.984 1.984 0 01-.184-.827V5.72zm1.834 9.659a1.73 1.73 0 01-.786-.194l4.684-4.935a3.18 3.18 0 002.213.884c.8 0 1.603-.295 2.212-.884l4.684 4.935c-.24.121-.503.194-.785.194H3.888z" fill="#023869" stroke="#023869" stroke-width=".3"/></svg>
